X: 41276
T: Tulla Moondance
R: reel
M: 4/4
K: Edorian
|:FE E2 FEDE|FEED FABA|FEE2 FEDA,|1 DA,DE FABA:|2 DA,DE FAdc||
Bee2 fee2|Beec dece|Beea fedA|BABc dBAd|
Bee2 fede|fgfe d3e|fdd2 edcd|BABc dcBA||

